packages/ckeditor5-icons/theme/icons/ai-adjust-length.svg

<svg viewBox="0 0 20 20" xmlns="http://www.w3.org/2000/svg">
<path d="M13.7485 15.5L14.4403 13.6305C14.6441 13.0798 15.0783 12.6456 15.629 12.4418L17.4985 11.75L15.629 11.0582C15.0783 10.8544 14.6441 10.4202 14.4403 9.86951L13.7485 8L13.0568 9.86951C12.853 10.4202 12.4188 10.8544 11.868 11.0582L9.99854 11.75L11.868 12.4418C12.4188 12.6456 12.853 13.0798 13.0568 13.6305L13.7485 15.5Z" />
<path d="M14.249 4C14.6632 4 14.999 4.33579 14.999 4.75C14.999 5.16421 14.6632 5.5 14.249 5.5H3.24902C2.83481 5.5 2.49902 5.16421 2.49902 4.75C2.49902 4.33579 2.83481 4 3.24902 4H14.249Z" />
<path d="M10.249 8C10.6632 8 10.999 8.33579 10.999 8.75C10.999 9.16421 10.6632 9.5 10.249 9.5H3.24902C2.83481 9.5 2.49902 9.16421 2.49902 8.75C2.49902 8.33579 2.83481 8 3.24902 8H10.249Z" />
<path d="M7.24902 12C7.66324 12 7.99902 12.3358 7.99902 12.75C7.99902 13.1642 7.66324 13.5 7.24902 13.5H3.24902C2.83481 13.5 2.49902 13.1642 2.49902 12.75C2.49902 12.3358 2.83481 12 3.24902 12H7.24902Z" />
</svg>

<svg xmlns="http://www.w3.org/2000/svg" viewBox="0 0 20 20"><path d="m13.749 15.5.691-1.87c.204-.55.638-.984 1.189-1.188l1.87-.692-1.87-.692A2.01 2.01 0 0 1 14.44 9.87L13.75 8l-.692 1.87c-.204.55-.638.984-1.189 1.188l-1.87.692 1.87.692c.55.204.985.638 1.189 1.188zm.5-11.5a.75.75 0 0 1 0 1.5h-11a.75.75 0 0 1 0-1.5zm-4 4a.75.75 0 0 1 0 1.5h-7a.75.75 0 0 1 0-1.5zm-3 4a.75.75 0 0 1 0 1.5h-4a.75.75 0 0 1 0-1.5z"/></svg>
